icons/glyphs/glyph-calendar-todo.svg

<?xml version="1.0" encoding="UTF-8" standalone="no"?><svg height="16" viewBox="0 0 4.2333332 4.2333332" width="16" xmlns="http://www.w3.org/2000/svg"><sodipodi:namedview/><metadata><rdf:RDF><cc:Work><dc:format>image/svg+xml</dc:format><dc:type/><dc:title/></cc:Work></rdf:RDF></metadata><path d="m0 0v16h14.689453v-1.929688h1.310547v-3.111328h-1.310547v-5.8730465h1.310547v-3.1132813h-1.310547v-1.9726562zm10.886667 3.8649843 1.40513 1.3944982-6.5791254 6.5135645-3.708621-4.004531 1.4033578-1.3944982 2.33007 2.585226z" fill="#d0d0d0" stroke-width="3.647244" transform="scale(.26458333)"/></svg>

<?xml version="1.0" encoding="UTF-8" standalone="no"?>
<!-- Created with Inkscape (http://www.inkscape.org/) -->

<svg
   xmlns:dc="http://purl.org/dc/elements/1.1/"
   xmlns:cc="http://creativecommons.org/ns#"
   xmlns:rdf="http://www.w3.org/1999/02/22-rdf-syntax-ns#"
   xmlns:svg="http://www.w3.org/2000/svg"
   xmlns="http://www.w3.org/2000/svg"
   xmlns:sodipodi="http://sodipodi.sourceforge.net/DTD/sodipodi-0.dtd"
   xmlns:inkscape="http://www.inkscape.org/namespaces/inkscape"
   width="16"
   height="16"
   viewBox="0 0 4.2333332 4.2333332"
   version="1.1"
   id="svg8"
   inkscape:version="0.92+devel (4546dc857e, 2017-07-25, custom)"
   sodipodi:docname="glyph-calendar-todo.svg">
  <defs
     id="defs2">
    <style
       id="current-color-scheme"
       type="text/css">
      .ColorScheme-Text {
        color:#f2f2f2;
      }
      </style>
    <pattern
       patternUnits="userSpaceOnUse"
       width="16"
       height="16"
       patternTransform="scale(0.26458333)"
       id="pattern823">
      <path
         sodipodi:nodetypes="cccccccccccccccc"
         inkscape:connector-curvature="0"
         style="fill:currentColor;fill-opacity:1;stroke:none;stroke-width:1"
         d="M 0.99999975,0 V 1.9999998 H 0 V 5 h 0.99999975 v 6 H 0 v 3 h 0.99999975 v 2 H 4 16 V 15 0 H 4 Z"
         class="ColorScheme-Text"
         id="path813" />
    </pattern>
    <style
       type="text/css"
       id="current-color-scheme-7">
      .ColorScheme-Text {
        color:#f2f2f2;
      }
      </style>
  </defs>
  <sodipodi:namedview
     id="base"
     pagecolor="#002466"
     bordercolor="#ffffff"
     borderopacity="0.38039216"
     inkscape:pageopacity="1"
     inkscape:pageshadow="2"
     inkscape:zoom="36.415999"
     inkscape:cx="10.094581"
     inkscape:cy="7.9162778"
     inkscape:document-units="px"
     inkscape:current-layer="svg8"
     inkscape:document-rotation="0"
     showgrid="false"
     inkscape:showpageshadow="false"
     borderlayer="true"
     inkscape:window-width="1920"
     inkscape:window-height="1051"
     inkscape:window-x="0"
     inkscape:window-y="0"
     inkscape:window-maximized="1"
     units="px"
     inkscape:snap-text-baseline="false"
     inkscape:snap-page="true"
     inkscape:object-paths="true" />
  <metadata
     id="metadata5">
    <rdf:RDF>
      <cc:Work
         rdf:about="">
        <dc:format>image/svg+xml</dc:format>
        <dc:type
           rdf:resource="http://purl.org/dc/dcmitype/StillImage" />
        <dc:title></dc:title>
      </cc:Work>
    </rdf:RDF>
  </metadata>
  <path
     style="fill:#d0d0d0;fill-opacity:1;stroke-width:3.64724398"
     d="M 0,0 V 16 H 14.689453 V 14.070312 H 16 V 10.958984 H 14.689453 V 5.0859375 H 16 V 1.9726562 H 14.689453 V 0 Z m 10.886667,3.8649843 1.40513,1.3944982 -6.5791254,6.5135645 -3.708621,-4.004531 1.4033578,-1.3944982 2.33007,2.585226 z"
     transform="scale(0.26458333)"
     id="path1583"
     inkscape:connector-curvature="0"
     sodipodi:nodetypes="cccccccccccccccccccc"
     inkscape:label="#" />
</svg>
